X:1
T:’Tis Love That Makes Us Happy
T:’Tis Love That Makes Us Happy
T:Franklin Edson Belden
T:Franklin Edson Belden, 1892
T:Public Domain Courtesy of the Cyber Hymnal™
T:Public Domain Courtesy of the Cyber Hymnal™
C:Franklin Edson Belden
Z:Public Domain
Z:Courtesy of the Cyber Hymnal™
%%score ( 1 2 ) ( 3 4 )
L:1/8
Q:1/4=95
M:2/4
K:Ab
V:1 treble 
V:2 treble 
V:3 bass 
V:4 bass 
V:1
 E | [CA][CE] [CE][Ec] | [DB] [CA]2 [EG] | [DF][DF] [FA][DF] | [CE]3 [CE] | [CA][CE] [CE][Ec] | %6
w: 1.~’Tis|love that makes us|hap- py, ’Tis|love that smoothes the|way; It|helps us mind, it|
w: 2.~This|world is full of|sor- row, Of|sick- ness, death and|sin; With|lov- ing heart we’ll|
w: 3.~And|when this life is|o- ver, And|we are called a-|bove, Our|song shall be, e-|
 [DB][DF] [DF][Fd] | [Ec][DA] [DB][DB] | [CA]4 ||"^Refrain" [Ec]2 [Ec]2 | [CA]4 | %11
w: makes us kind To|oth- ers ev- ery|day.|||
w: do our part, And|try some soul to|win.|God is|love;|
w: ter- nal- ly, Of|Je- sus and His|love.|||
 [DA][DG] [DA][DF] | [DF]2 [CE]2 | [Ec]2 [Ec]2 | [CA]4 | [=DA][DA] [DG][DA] | [EB]3 [DE] | %17
w: ||||||
w: we’re His lit- tle|child- ren.|God is|love;|we would be like|Him. ’Tis|
w: ||||||
 [CA][CE] [CE][Ec] | [DB] [CA]2 [EG] | [DF][DF] [FA][DF] | [CE]3 [CE] | [CA][CE] [CE][Ec] | %22
w: |||||
w: love that makes us|hap- py, ’Tis|love that smoothes the|way; It|helps us “mind,” it|
w: |||||
 [DB][DF] [DF][Fd] | [Ec][CA] [DB][DB] | [CA]3 |] %25
w: |||
w: makes us kind To|oth- ers ev- ery|day.|
w: |||
V:2
 E | x4 | x4 | x4 | x4 | x4 | x4 | x4 | x4 || x4 | x4 | x4 | x4 | x4 | x4 | x4 | x4 | x4 | x4 | %19
 x4 | x4 | x4 | x4 | x4 | x3 |] %25
V:3
 E, | [A,,E,][A,,A,] [A,,E,][A,,F,] | [A,,G,] [A,,A,]2 [C,A,] | [D,A,][D,A,] [D,A,][F,A,] | %4
 A,3 [A,,A,] | [A,,E,][A,,F,] [A,,_G,][A,,G,] | [D,F,][D,A,] [D,A,][B,,A,] | %7
 [E,A,][E,A,] [E,G,][E,G,] | [A,,E,]4 || [A,,A,]2 (E,F,) | [A,,_G,]4 | [D,F,][D,=E,] [D,F,][D,A,] | %12
 [A,,A,]2 [A,,A,]2 | [A,,A,]2 [A,,A,]2 | (A,2 G,2) | [B,,F,][B,,F,] [B,,B,][B,,A,] | [E,G,]3 E, | %17
 [A,,E,][A,,A,] [A,,E,][A,,F,] | [A,,G,] [A,,A,]2 [C,A,] | [D,A,][D,A,] [D,A,][F,A,] | %20
 A,3 [A,,A,] | [A,,E,][A,,F,] [A,,_G,][A,,G,] | [D,F,][D,A,] [D,A,][B,,A,] | %23
 [E,A,][E,A,] [E,G,][E,G,] | [A,,E,]3 |] %25
V:4
 E, | x4 | x4 | x4 | A,3 x | x4 | x4 | x4 | x4 || x2 A,,2 | x4 | x4 | x4 | x4 | A,,4 | x4 | x3 E, | %17
 x4 | x4 | x4 | A,3 x | x4 | x4 | x4 | x3 |] %25

